assets/icons/24px/outline/trash-with-lines-24px.svg

<svg width="24" height="24" viewBox="0 0 24 24" fill="none" xmlns="http://www.w3.org/2000/svg">
<path d="M5 9.5L6.08702 17.5362C6.31029 19.1868 6.42192 20.012 6.98722 20.506C7.55252 21 8.38532 21 10.0509 21H13.9491C15.6147 21 16.4475 21 17.0128 20.506C17.5781 20.012 17.6897 19.1868 17.913 17.5362L19 9.5" stroke="white" stroke-width="2" stroke-linecap="round" stroke-linejoin="round"/>
<path d="M9 6V6C9 5.06812 9 4.60218 9.15224 4.23463C9.35523 3.74458 9.74458 3.35523 10.2346 3.15224C10.6022 3 11.0681 3 12 3V3C12.9319 3 13.3978 3 13.7654 3.15224C14.2554 3.35523 14.6448 3.74458 14.8478 4.23463C15 4.60218 15 5.06812 15 6V6" stroke="white" stroke-width="2" stroke-linecap="round" stroke-linejoin="round"/>
<path d="M19 6L5 6" stroke="white" stroke-width="2" stroke-linecap="round" stroke-linejoin="round"/>
<path d="M9.5 10L10 17.5" stroke="white" stroke-width="2" stroke-linecap="round" stroke-linejoin="round"/>
<path d="M14.5 10L14 17.5" stroke="white" stroke-width="2" stroke-linecap="round" stroke-linejoin="round"/>
</svg>

<svg width="24" height="24" fill="none" xmlns="http://www.w3.org/2000/svg"><path d="M5 9.5l1.087 8.036c.223 1.65.335 2.476.9 2.97.566.494 1.398.494 3.064.494h3.898c1.666 0 2.499 0 3.064-.494s.677-1.32.9-2.97L19 9.5M9 6c0-.932 0-1.398.152-1.765a2 2 0 0 1 1.083-1.083C10.602 3 11.068 3 12 3c.932 0 1.398 0 1.765.152a2 2 0 0 1 1.083 1.083C15 4.602 15 5.068 15 6m4 0H5m4.5 4l.5 7.5m4.5-7.5l-.5 7.5" stroke="#fff" stroke-width="2" stroke-linecap="round" stroke-linejoin="round"/></svg>
